src/images/mesh-icon/icon_deployments.svg

<svg height="20" viewBox="0 0 20 20" width="20" xmlns="http://www.w3.org/2000/svg"><g fill="none" fill-rule="evenodd" stroke="#79879c" stroke-width="1.5"><path d="m4.5 3.5h2c.55228475 0 1 .44771525 1 1v2c0 .55228475-.44771525 1-1 1h-2c-.55228475 0-1-.44771525-1-1v-2c0-.55228475.44771525-1 1-1z"/><path d="m4.5 12.5h2c.55228475 0 1 .4477153 1 1v2c0 .5522847-.44771525 1-1 1h-2c-.55228475 0-1-.4477153-1-1v-2c0-.5522847.44771525-1 1-1z"/><path d="m13.5 3.5h2c.5522847 0 1 .44771525 1 1v2c0 .55228475-.4477153 1-1 1h-2c-.5522847 0-1-.44771525-1-1v-2c0-.55228475.4477153-1 1-1z"/><path d="m13.5 12.5h2c.5522847 0 1 .4477153 1 1v2c0 .5522847-.4477153 1-1 1h-2c-.5522847 0-1-.4477153-1-1v-2c0-.5522847.4477153-1 1-1z"/><path d="m8 5.5h4"/><path d="m14.5 8v4"/><path d="m12 14.5h-4"/><path d="m5.5 12v-4"/></g></svg>

<?xml version="1.0" encoding="UTF-8"?>
<svg width="20px" height="20px" viewBox="0 0 20 20" version="1.1" xmlns="http://www.w3.org/2000/svg" xmlns:xlink="http://www.w3.org/1999/xlink">
    <title>icon_deployments</title>
    <g id="Dashboard" stroke="none" stroke-width="1" fill="none" fill-rule="evenodd">
        <g id="03-开发环境-创建环境-创建共享开发环境-第一步填充态-流量生成" transform="translate(-725.000000, -409.000000)" stroke="#79879C" stroke-width="1.5">
            <g id="创建共享开发环境" transform="translate(244.000000, 104.000000)">
                <g id="Right" transform="translate(420.000000, 0.000000)">
                    <g id="集群" transform="translate(0.000000, 126.000000)">
                        <g id="编组-17" transform="translate(24.000000, 64.000000)">
                            <g id="编组-14" transform="translate(16.000000, 64.000000)">
                                <g id="编组-7备份-25" transform="translate(20.000000, 12.000000)">
                                    <g id="编组-22" transform="translate(0.000000, 38.000000)">
                                        <g id="编组-21" transform="translate(1.000000, 1.000000)">
                                            <path d="M4.5,3.5 L6.5,3.5 C7.05228475,3.5 7.5,3.94771525 7.5,4.5 L7.5,6.5 C7.5,7.05228475 7.05228475,7.5 6.5,7.5 L4.5,7.5 C3.94771525,7.5 3.5,7.05228475 3.5,6.5 L3.5,4.5 C3.5,3.94771525 3.94771525,3.5 4.5,3.5 Z" id="矩形"></path>
                                            <path d="M4.5,12.5 L6.5,12.5 C7.05228475,12.5 7.5,12.9477153 7.5,13.5 L7.5,15.5 C7.5,16.0522847 7.05228475,16.5 6.5,16.5 L4.5,16.5 C3.94771525,16.5 3.5,16.0522847 3.5,15.5 L3.5,13.5 C3.5,12.9477153 3.94771525,12.5 4.5,12.5 Z" id="矩形备份-10"></path>
                                            <path d="M13.5,3.5 L15.5,3.5 C16.0522847,3.5 16.5,3.94771525 16.5,4.5 L16.5,6.5 C16.5,7.05228475 16.0522847,7.5 15.5,7.5 L13.5,7.5 C12.9477153,7.5 12.5,7.05228475 12.5,6.5 L12.5,4.5 C12.5,3.94771525 12.9477153,3.5 13.5,3.5 Z" id="矩形备份-9"></path>
                                            <path d="M13.5,12.5 L15.5,12.5 C16.0522847,12.5 16.5,12.9477153 16.5,13.5 L16.5,15.5 C16.5,16.0522847 16.0522847,16.5 15.5,16.5 L13.5,16.5 C12.9477153,16.5 12.5,16.0522847 12.5,15.5 L12.5,13.5 C12.5,12.9477153 12.9477153,12.5 13.5,12.5 Z" id="矩形备份-11"></path>
                                            <line x1="8" y1="5.5" x2="12" y2="5.5" id="路径-3"></line>
                                            <line x1="14.5" y1="8" x2="14.5" y2="12" id="路径-5"></line>
                                            <line x1="12" y1="14.5" x2="8" y2="14.5" id="路径-8"></line>
                                            <line x1="5.5" y1="12" x2="5.5" y2="8" id="路径-10"></line>
                                        </g>
                                    </g>
                                </g>
                            </g>
                        </g>
                    </g>
                </g>
            </g>
        </g>
    </g>
</svg>
